svg/u1f391.svg

<svg viewBox="0 0 128 128" xmlns="http://www.w3.org/2000/svg">
  <g>
    <g>
      <linearGradient id="SVGID_1_" gradientUnits="userSpaceOnUse" x1="64" x2="64" y1="155.5578" y2="-0.2438">
        <stop offset="0.0434" stop-color="#3367D6"/>
        <stop offset="0.2793" stop-color="#3446B3"/>
        <stop offset="0.5213" stop-color="#352893"/>
        <stop offset="1" stop-color="#1A237E"/>
      </linearGradient>
      <path d="M116,124H12c-4.42,0-8-3.58-8-8V12c0-4.42,3.58-8,8-8h104c4.42,0,8,3.58,8,8v104 C124,120.42,120.42,124,116,124z" fill="url(#SVGID_1_)"/>
      <g>
        <path clip-rule="evenodd" d="M116.54,13.88c-2.81-0.94-4.99-3.22-5.78-6.08 c-0.11-0.39-0.63-0.4-0.76-0.02c-0.92,2.82-3.2,5.01-6.06,5.82c-0.37,0.1-0.38,0.61-0.02,0.73c2.81,0.93,4.99,3.22,5.79,6.06 c0.11,0.39,0.63,0.4,0.76,0.02c0.92-2.82,3.2-5,6.05-5.8C116.89,14.51,116.9,14,116.54,13.88z" fill="#FFF176" fill-rule="evenodd"/>
        <path clip-rule="evenodd" d="M16.39,20.52c-2.02-0.68-3.6-2.32-4.17-4.38 c-0.08-0.28-0.46-0.29-0.55-0.01c-0.66,2.03-2.31,3.61-4.37,4.19c-0.26,0.07-0.27,0.44-0.01,0.53c2.03,0.67,3.6,2.32,4.17,4.37 c0.08,0.28,0.46,0.29,0.55,0.01c0.66-2.03,2.31-3.61,4.36-4.18C16.64,20.97,16.65,20.61,16.39,20.52z" fill="#FFF9C4" fill-rule="evenodd"/>
        <circle clip-rule="evenodd" cx="117.67" cy="45.25" fill="#7986CB" fill-rule="evenodd" r="3.19"/>
        <circle clip-rule="evenodd" cx="112.03" cy="33.99" fill="#7BAAF7" fill-rule="evenodd" opacity="0.58" r="2.41"/>
        <circle clip-rule="evenodd" cx="32.37" cy="94.4" fill="#7BAAF7" fill-rule="evenodd" opacity="0.7" r="2.41"/>
      </g>
    </g>
    <path d="M98.01-0.06c0.05,0,0.09,0,0.14,0" fill="none"/>
    <path d="M98.01-0.06c0.05,0,0.09,0,0.14,0" fill="none"/>
    <g>
      <circle cx="64" cy="53.62" fill="#FFE558" r="44.56"/>
      <path d="M62.94,13.95c0.15,1.29-2.65,2.34-6.02,2.95c-3.37,0.61-6.25,0.57-6.71-0.65 c-0.46-1.22,1.92-3.28,5.6-3.95C59.48,11.62,62.79,12.66,62.94,13.95z" fill="#FFCD40"/>
      <path d="M31.96,77.93c0.08-0.14,0.82-0.38,1.73,0.38c0.91,0.76,3.6,3.02,4.67,3.88 c1.07,0.86,0.12,1.7-0.73,1.6C33.52,83.32,31.07,79.41,31.96,77.93z" fill="#FFCD40"/>
      <path d="M45.31,88.2c0.03-0.14,0.54-0.55,1.5-0.22c0.96,0.33,3.78,1.31,4.89,1.67 c1.11,0.36,0.61,1.31-0.1,1.49C48.18,92.02,45.05,89.65,45.31,88.2z" fill="#FFCD40"/>
      <path d="M52.13,83.91c0.57,0.38,1.16,0.99,0.95,1.62c-0.2,0.57-0.93,0.76-1.55,0.81 c-2.05,0.16-4.14-0.24-6-1.09c-1.31-0.6-4.75-2.49-4.39-4.25C41.63,78.51,50.67,82.95,52.13,83.91z" fill="#FFCD40"/>
      <path d="M102.61,47.31c-0.19,0.14-2.5,0.23-3.22-1.32s-2.85-6.14-3.71-7.92c-0.87-1.78,2.07-2.57,3.12-1.95 C103.86,39.09,104.67,45.8,102.61,47.31z" fill="#FFCD40"/>
      <path d="M96.67,32.89c-0.11,0.16-0.98,0.37-1.93-0.63c-0.95-1-3.75-3.99-4.87-5.13 c-1.12-1.14,0.06-2.06,1.02-1.85C95.53,26.26,97.86,31.21,96.67,32.89z" fill="#FFCD40"/>
      <path d="M79.5,17.34c-0.03,0.15-0.59,0.59-1.58,0.2c-0.99-0.39-3.9-1.56-5.05-1.99 c-1.15-0.43-0.58-1.47,0.17-1.65C76.66,13.05,79.84,15.76,79.5,17.34z" fill="#FFCD40"/>
      <radialGradient id="SVGID_2_" cx="64" cy="53.6164" gradientUnits="userSpaceOnUse" r="49.253">
        <stop offset="0.7577" stop-color="#FFF9C4" stop-opacity="0"/>
        <stop offset="0.9917" stop-color="#FFF9C4"/>
      </radialGradient>
      <circle cx="64" cy="53.62" fill="url(#SVGID_2_)" r="44.56"/>
    </g>
    <g>
      <polygon fill="#BA793E" points="105.08,124 102.48,94.4 70.58,94.4 68.08,124 "/>
      <polygon fill="#784D30" points="69.52,107.08 103.6,107.08 102.73,97.13 70.36,97.13 "/>
      <polygon fill="#784D30" points="69.54,107.08 103.62,107.08 102.75,97.13 70.38,97.13 "/>
      <circle cx="86.44" cy="65.28" fill="#FFF7EB" r="10.67"/>
      <circle cx="77.31" cy="77.2" fill="#FFF7EB" r="10.67"/>
      <radialGradient id="SVGID_3_" cx="95.5716" cy="77.1997" gradientUnits="userSpaceOnUse" r="10.667">
        <stop offset="0.5364" stop-color="#FCEBCD"/>
        <stop offset="0.7183" stop-color="#FDF1D7"/>
        <stop offset="1" stop-color="#FFF8E1"/>
      </radialGradient>
      <circle cx="95.57" cy="77.2" fill="url(#SVGID_3_)" r="10.67"/>
      <circle cx="95.57" cy="77.2" fill="#FFF7EB" r="10.67"/>
      <circle cx="71.16" cy="88.16" fill="#FFF7EB" r="10.67"/>
      <circle cx="101.72" cy="88.16" fill="#FFF7EB" r="10.67"/>
      <circle cx="86.44" cy="88.16" fill="#FFF7EB" r="10.67"/>
      <path d="M107.05,89.63c-3.04-0.08-5.28-1.36-6.98-2.98c-2.73-3.11-0.67-6.7,1.81-8.05 c1.93-1.05,4.17-0.19,4.17-0.19c-4.73-3.27-7.4,0.44-12.75-1.35c-3.35-1.12-4.07-4.1-3.35-7.01c1.1-4.45,7.02-3.43,7.02-3.43 s-0.81-1.13-2.97-1.14c-2.74-0.01-4.72,0.79-6.02,1.6c-0.94,0.59-2.13,0.59-3.07,0c-1.31-0.82-3.28-1.62-6.02-1.6 c-2.16,0.01-2.97,1.14-2.97,1.14s5.92-1.03,7.02,3.43c0.72,2.91,0,5.89-3.35,7.01c-5.35,1.79-8.02-1.92-12.75,1.35 c0,0,2.24-0.86,4.17,0.19c2.48,1.35,4.55,4.94,1.81,8.05c-1.7,1.62-3.94,2.9-6.98,2.98c-4.43,0.12-5.34-1.36-5.34-1.36 c0.05,2.27,0.61,3.44,0.61,3.44h50.68c0,0,0.56-1.17,0.61-3.44C112.39,88.27,111.48,89.75,107.05,89.63z M86.59,89.6 c-4.72,0-9.27-1.73-8.59-5.55c0.62-3.46,3.73-6.55,8.44-6.55s8.18,3.07,8.63,6.55C95.57,87.87,91.3,89.6,86.59,89.6z" fill="#EA7554" opacity="0.26"/>
      <path d="M107.05,89.63c-3.04-0.08-5.28-1.36-6.98-2.98c-2.73-3.11-0.67-6.7,1.81-8.05 c1.93-1.05,4.17-0.19,4.17-0.19c-4.73-3.27-7.4,0.44-12.75-1.35c-3.35-1.12-4.07-4.1-3.35-7.01c1.1-4.45,7.02-3.43,7.02-3.43 s-0.81-1.13-2.97-1.14c-2.74-0.01-4.72,0.79-6.02,1.6c-0.94,0.59-2.13,0.59-3.07,0c-1.31-0.82-3.28-1.62-6.02-1.6 c-2.16,0.01-2.97,1.14-2.97,1.14s5.92-1.03,7.02,3.43c0.72,2.91,0,5.89-3.35,7.01c-5.35,1.79-8.02-1.92-12.75,1.35 c0,0,2.24-0.86,4.17,0.19c2.48,1.35,4.55,4.94,1.81,8.05c-1.7,1.62-3.94,2.9-6.98,2.98c-4.43,0.12-5.34-1.36-5.34-1.36 c0.05,2.27,0.61,3.44,0.61,3.44h50.68c0,0,0.56-1.17,0.61-3.44C112.39,88.27,111.48,89.75,107.05,89.63z M86.59,89.6 c-4.72,0-9.27-1.73-8.59-5.55c0.62-3.46,3.73-6.55,8.44-6.55s8.18,3.07,8.63,6.55C95.57,87.87,91.3,89.6,86.59,89.6z" fill="#EA7554" opacity="0.26"/>
      <path d="M114.88,102.95h-56.6c-1.54,0-2.79-1.25-2.79-2.79v-8.45h62.18v8.45 C117.67,101.71,116.42,102.95,114.88,102.95z" fill="#BA793E"/>
      <line fill="none" stroke="#FFB74D" stroke-linecap="round" stroke-miterlimit="10" stroke-width="2" x1="56.36" x2="116.8" y1="91.71" y2="91.71"/>
      <path d="M114.02,92.63l-5.61-1.87c1.75-8.4-3.84-11.96-6.43-12.34 c0.04-0.31,0.06-0.62,0.06-0.93c0-3.99-1.16-10.05-7.49-10.76c0.04-0.33,0.07-0.66,0.07-1c0-4.36-3.53-7.89-7.89-7.89 c-0.05,0-0.1,0.01-0.14,0.01c-0.05,0-0.1-0.01-0.14-0.01c-4.36,0-7.89,3.53-7.89,7.89c0,0.34,0.03,0.67,0.07,1 c-6.33,0.7-7.49,6.76-7.49,10.76c0,0.32,0.02,0.63,0.06,0.93c-2.59,0.38-8.18,3.94-6.43,12.34l-5.61,1.87l-0.01,7.54 c0,1.54,1.02,2.79,2.28,2.79h10.79L70.97,124h15.61h15.61l-1.25-21.05h10.79c1.26,0,2.28-1.25,2.28-2.79L114.02,92.63z" fill="#1A237E" opacity="0.38"/>
      <path d="M89.9,112.12c-0.29-1.83-1.63-3.27-3.36-3.27s-3.08,1.35-3.36,3.27c-1.54,0.38-2.79,0.38-2.79,2.4 c0,2.21,3.75,5.86,6.25,5.86c2.5,0,6.05-3.65,6.05-5.86C92.69,112.5,91.54,112.5,89.9,112.12z" fill="#4E342E"/>
      <path d="M89.2,112.34c-0.23-1.44-1.29-2.58-2.66-2.58c-1.37,0-2.43,1.06-2.66,2.58 c-1.21,0.3-2.2,0.3-2.2,1.9c0,1.75,2.96,4.63,4.94,4.63c1.97,0,4.78-2.89,4.78-4.63C91.4,112.65,90.49,112.65,89.2,112.34z" fill="#212121"/>
    </g>
    <path d="M12.76,124c-0.02-0.34-1.81-31.36,15.94-68.89l1.88,0.34c-16.51,37.35-14.34,68.18-14.32,68.52 L12.76,124z" fill="#97A53B"/>
    <path d="M18.93,124l-2.67,0c0.03-0.28,1.37-26.67,15.65-49.13l1.71,1.08 C21.45,97.75,18.96,123.73,18.93,124z" fill="#97A53B"/>
    <path d="M31.98,102.42c2.32-1.67,5.83-3.62,8.52-2.65c1.6,0.58,2.83,1.88,3.93,3.19 c2.94,3.48,4.94,7.92,7.94,11.35c3.99,4.57,11.64,6.61,11.64,6.61s-10.03,1.99-14.44-2.42c-4.64-4.65-4.63-5.79-7.1-9.53 c-1.1-1.67-4.72-6.09-7.28-5.83c-2.56,0.26-8.57,17.87-11,20.86h-4.47c0,0,0.86-6.85,3.37-11.95 C25.03,108.12,28.41,104.98,31.98,102.42z" fill="#668424"/>
    <path d="M12.43,124h2.56c0,0-4.94-38.43,3.43-64.52c3.34-10.42,11.53-22.36,15.14-27.33 c0.25-0.35-0.21-0.76-0.54-0.48C-0.71,60.52,9.44,110.96,12.43,124z" fill="#97A53B"/>
    <path d="M7.3,58.01C6.38,71.85,7.55,87.87,7.55,87.87s0.24-16.21,3.87-25.27c0,0,1.07-16.14,5.93-29.56 c4.71-12.99,13.11-21.88,12.47-22.11C28.52,10.45,9.54,24.13,7.3,58.01z" fill="#668424"/>
    <path d="M56.07,14.9c-5.7,2.14-10.55,6.17-14.35,10.92c-3.8,4.75-6.62,10.21-9.08,15.77 c-2.45,5.55-4.89,12.03-5.38,17.32c-0.15,1.6,1.32,1.61,2.29,0.34c3.82-5,7.66-13.49,19.88-18.6c4.01-1.68,8.29-4.34,6.75-6.17 c-0.44-0.52-1.62-1.1-3.62-0.63c-2.41,0.57-5.19,2.03-6.3,2.65c-0.31,0.17-0.78,0.14,0-0.51c1.45-1.22,5.24-3.72,11.51-5.26 c1.32-0.32,2.93-1.35,2.09-2.33c-0.87-1.01-2.55-1.14-4.69-0.45c-8.05,2.61-12.88,5.94-17.03,11.25c-0.26,0.33-0.78,0-0.58-0.37 c2.05-3.83,4.45-6.64,8.67-9.54c5.28-3.63,19.02-6.69,20.33-7.47c2.01-1.2,2.42-2.05,2.47-2.82c0.12-1.79-1.84-2.11-3.27-1.84 c-8.13,1.49-15.86,5.15-22.04,10.63c-0.17,0.15-0.38,0.06-0.15-0.23c6.21-7.76,11.96-9.73,15.55-11.34 c0.76-0.34,1.92-0.97,0.79-1.85C58.99,13.65,56.99,14.55,56.07,14.9z" fill="#FFFFFF"/>
    <path d="M29.7,83.17c-0.87,0.52-1.92-0.31-1.61-1.28c1.4-4.4,3.55-9.8,8.24-17 c5.7-8.76,12.86-15.33,16.71-16.26c3.6-0.87,3.18,1.36,2.17,1.95c-3.09,1.8-6.77,4.07-9.4,6.49c-3.42,3.16-5.47,6.56-6.29,8.06 c-0.27,0.5-0.01,0.29,0.19,0.04c5.02-6.13,13.37-12.22,21.54-14.27c1.55-0.39,3.96-0.79,5.46-0.25c0.76,0.27,1.51,0.88,1.53,1.69 c0.02,0.87-0.93,1.88-3.15,2.72c-5.23,1.98-15.39,6.6-18.83,10.04c0,0-0.49,0.78,1.74-0.55c1.68-1.01,5.52-3.43,9.72-3.64 c3.44-0.17,3.35,3.3-2.87,5.31c-3.91,1.26-7.4,2.61-10.67,4.04c-2.84,1.23-6.16,3.25-7.73,4.69c-1.22,1.13-1.1,1.2-0.56,0.85 c0,0,4.92-2.86,5.68-1.32c0.43,0.88-0.74,1.82-1.56,2.35C37.03,78.77,32.48,81.51,29.7,83.17z" fill="#FFFFFF"/>
  </g>
</svg>

<svg viewBox="0 0 128 128" xmlns="http://www.w3.org/2000/svg">
  <defs>
    <linearGradient id="SVGID_1_" gradientUnits="userSpaceOnUse" x1="64" x2="64" y1="155.5578" y2="-0.2438">
      <stop offset="0.0434" stop-color="#3367D6"/>
      <stop offset="0.2793" stop-color="#3446B3"/>
      <stop offset="0.5213" stop-color="#352893"/>
      <stop offset="1" stop-color="#1A237E"/>
    </linearGradient>
    <radialGradient id="SVGID_2_" cx="64" cy="53.6164" gradientUnits="userSpaceOnUse" r="49.253">
      <stop offset="0.7577" stop-color="#FFF9C4" stop-opacity="0"/>
      <stop offset="0.9917" stop-color="#FFF9C4"/>
    </radialGradient>
    <radialGradient id="SVGID_3_" cx="95.5716" cy="77.1997" gradientUnits="userSpaceOnUse" r="10.667">
      <stop offset="0.5364" stop-color="#FCEBCD"/>
      <stop offset="0.7183" stop-color="#FDF1D7"/>
      <stop offset="1" stop-color="#FFF8E1"/>
    </radialGradient>
  </defs>
  <path d="M116,124 L12,124 C7.58,124 4,120.42 4,116 L4,12 C4,7.58 7.58,4 12,4 L116,4 C120.42,4 124,7.58 124,12 L124,116 C124,120.42 120.42,124 116,124 Z" fill="url(#SVGID_1_)"/>
  <path d="M116.54,13.88 C116.9,14 116.89,14.51 116.52,14.61 C113.67,15.41 111.39,17.59 110.47,20.41 C110.34,20.79 109.82,20.78 109.71,20.39 C108.91,17.55 106.73,15.26 103.92,14.33 C103.56,14.21 103.57,13.7 103.94,13.6 C106.8,12.79 109.08,10.6 110,7.78 C110.13,7.4 110.65,7.41 110.76,7.8 C111.55,10.66 113.73,12.94 116.54,13.88 Z" fill="#FFF176"/>
  <path d="M16.39,20.52 C16.65,20.61 16.64,20.97 16.37,21.05 C14.32,21.62 12.67,23.2 12.01,25.23 C11.92,25.51 11.54,25.5 11.46,25.22 C10.89,23.17 9.32,21.52 7.29,20.85 C7.03,20.76 7.04,20.39 7.3,20.32 C9.36,19.74 11.01,18.16 11.67,16.13 C11.76,15.85 12.14,15.86 12.22,16.14 C12.79,18.2 14.37,19.84 16.39,20.52 Z" fill="#FFF9C4"/>
  <path d="M120.86,45.25 C120.86,47.012 119.432,48.44 117.67,48.44 C115.908,48.44 114.48,47.012 114.48,45.25 C114.48,43.488 115.908,42.06 117.67,42.06 C119.432,42.06 120.86,43.488 120.86,45.25 Z" fill="#7986CB"/>
  <path d="M114.44,33.99 C114.44,35.321 113.361,36.4 112.03,36.4 C110.699,36.4 109.62,35.321 109.62,33.99 C109.62,32.659 110.699,31.58 112.03,31.58 C113.361,31.58 114.44,32.659 114.44,33.99 Z" fill="#7BAAF7" opacity="0.58"/>
  <path d="M34.78,94.4 C34.78,95.731 33.701,96.81 32.37,96.81 C31.039,96.81 29.96,95.731 29.96,94.4 C29.96,93.069 31.039,91.99 32.37,91.99 C33.701,91.99 34.78,93.069 34.78,94.4 Z" fill="#7BAAF7" opacity="0.7"/>
  <path d="M108.56,53.62 A44.56 44.56 0 1 1 19.44,53.62 A44.56 44.56 0 1 1 108.56,53.62 Z" fill="#FFE558"/>
  <path d="M62.94,13.95 C63.09,15.24 60.29,16.29 56.92,16.9 C53.55,17.51 50.67,17.47 50.21,16.25 C49.75,15.03 52.13,12.97 55.81,12.3 C59.48,11.62 62.79,12.66 62.94,13.95 Z" fill="#FFCD40"/>
  <path d="M31.96,77.93 C32.04,77.79 32.78,77.55 33.69,78.31 C34.6,79.07 37.29,81.33 38.36,82.19 C39.43,83.05 38.48,83.89 37.63,83.79 C33.52,83.32 31.07,79.41 31.96,77.93 Z" fill="#FFCD40"/>
  <path d="M45.31,88.2 C45.34,88.06 45.85,87.65 46.81,87.98 C47.77,88.31 50.59,89.29 51.7,89.65 C52.81,90.01 52.31,90.96 51.6,91.14 C48.18,92.02 45.05,89.65 45.31,88.2 Z" fill="#FFCD40"/>
  <path d="M52.13,83.91 C52.7,84.29 53.29,84.9 53.08,85.53 C52.88,86.1 52.15,86.29 51.53,86.34 C49.48,86.5 47.39,86.1 45.53,85.25 C44.22,84.65 40.78,82.76 41.14,81 C41.63,78.51 50.67,82.95 52.13,83.91 Z" fill="#FFCD40"/>
  <path d="M102.61,47.31 C102.42,47.45 100.11,47.54 99.39,45.99 C98.67,44.44 96.54,39.85 95.68,38.07 C94.81,36.29 97.75,35.5 98.8,36.12 C103.86,39.09 104.67,45.8 102.61,47.31 Z" fill="#FFCD40"/>
  <path d="M96.67,32.89 C96.56,33.05 95.69,33.26 94.74,32.26 C93.79,31.26 90.99,28.27 89.87,27.13 C88.75,25.99 89.93,25.07 90.89,25.28 C95.53,26.26 97.86,31.21 96.67,32.89 Z" fill="#FFCD40"/>
  <path d="M79.5,17.34 C79.47,17.49 78.91,17.93 77.92,17.54 C76.93,17.15 74.02,15.98 72.87,15.55 C71.72,15.12 72.29,14.08 73.04,13.9 C76.66,13.05 79.84,15.76 79.5,17.34 Z" fill="#FFCD40"/>
  <path d="M108.56,53.62 A44.56 44.56 0 1 1 19.44,53.62 A44.56 44.56 0 1 1 108.56,53.62 Z" fill="url(#SVGID_2_)"/>
  <path d="M105.08,124 L102.48,94.4 L70.58,94.4 L68.08,124 Z" fill="#BA793E"/>
  <path d="M69.52,107.08 L103.6,107.08 L102.73,97.13 L70.36,97.13 Z" fill="#784D30"/>
  <path d="M69.54,107.08 L103.62,107.08 L102.75,97.13 L70.38,97.13 Z" fill="#784D30"/>
  <path d="M97.11,65.28 A10.67 10.67 0 1 1 75.77,65.28 A10.67 10.67 0 1 1 97.11,65.28 Z" fill="#FFF7EB"/>
  <path d="M87.98,77.2 A10.67 10.67 0 1 1 66.64,77.2 A10.67 10.67 0 1 1 87.98,77.2 Z" fill="#FFF7EB"/>
  <path d="M106.24,77.2 A10.67 10.67 0 1 1 84.9,77.2 A10.67 10.67 0 1 1 106.24,77.2 Z" fill="url(#SVGID_3_)"/>
  <path d="M106.24,77.2 A10.67 10.67 0 1 1 84.9,77.2 A10.67 10.67 0 1 1 106.24,77.2 Z" fill="#FFF7EB"/>
  <path d="M81.83,88.16 A10.67 10.67 0 1 1 60.49,88.16 A10.67 10.67 0 1 1 81.83,88.16 Z" fill="#FFF7EB"/>
  <path d="M112.39,88.16 A10.67 10.67 0 1 1 91.05,88.16 A10.67 10.67 0 1 1 112.39,88.16 Z" fill="#FFF7EB"/>
  <path d="M97.11,88.16 A10.67 10.67 0 1 1 75.77,88.16 A10.67 10.67 0 1 1 97.11,88.16 Z" fill="#FFF7EB"/>
  <path d="M107.05,89.63 C104.01,89.55 101.77,88.27 100.07,86.65 C97.34,83.54 99.4,79.95 101.88,78.6 C103.81,77.55 106.05,78.41 106.05,78.41 C101.32,75.14 98.65,78.85 93.3,77.06 C89.95,75.94 89.23,72.96 89.95,70.05 C91.05,65.6 96.97,66.62 96.97,66.62 C96.97,66.62 96.16,65.49 94,65.48 C91.26,65.47 89.28,66.27 87.98,67.08 C87.04,67.67 85.85,67.67 84.91,67.08 C83.6,66.26 81.63,65.46 78.89,65.48 C76.73,65.49 75.92,66.62 75.92,66.62 C75.92,66.62 81.84,65.59 82.94,70.05 C83.66,72.96 82.94,75.94 79.59,77.06 C74.24,78.85 71.57,75.14 66.84,78.41 C66.84,78.41 69.08,77.55 71.01,78.6 C73.49,79.95 75.56,83.54 72.82,86.65 C71.12,88.27 68.88,89.55 65.84,89.63 C61.41,89.75 60.5,88.27 60.5,88.27 C60.55,90.54 61.11,91.71 61.11,91.71 L111.79,91.71 C111.79,91.71 112.35,90.54 112.4,88.27 C112.39,88.27 111.48,89.75 107.05,89.63 Z M86.59,89.6 C81.87,89.6 77.32,87.87 78,84.05 C78.62,80.59 81.73,77.5 86.44,77.5 C91.15,77.5 94.62,80.57 95.07,84.05 C95.57,87.87 91.3,89.6 86.59,89.6 Z" fill="#EA7554" opacity="0.26"/>
  <path d="M107.05,89.63 C104.01,89.55 101.77,88.27 100.07,86.65 C97.34,83.54 99.4,79.95 101.88,78.6 C103.81,77.55 106.05,78.41 106.05,78.41 C101.32,75.14 98.65,78.85 93.3,77.06 C89.95,75.94 89.23,72.96 89.95,70.05 C91.05,65.6 96.97,66.62 96.97,66.62 C96.97,66.62 96.16,65.49 94,65.48 C91.26,65.47 89.28,66.27 87.98,67.08 C87.04,67.67 85.85,67.67 84.91,67.08 C83.6,66.26 81.63,65.46 78.89,65.48 C76.73,65.49 75.92,66.62 75.92,66.62 C75.92,66.62 81.84,65.59 82.94,70.05 C83.66,72.96 82.94,75.94 79.59,77.06 C74.24,78.85 71.57,75.14 66.84,78.41 C66.84,78.41 69.08,77.55 71.01,78.6 C73.49,79.95 75.56,83.54 72.82,86.65 C71.12,88.27 68.88,89.55 65.84,89.63 C61.41,89.75 60.5,88.27 60.5,88.27 C60.55,90.54 61.11,91.71 61.11,91.71 L111.79,91.71 C111.79,91.71 112.35,90.54 112.4,88.27 C112.39,88.27 111.48,89.75 107.05,89.63 Z M86.59,89.6 C81.87,89.6 77.32,87.87 78,84.05 C78.62,80.59 81.73,77.5 86.44,77.5 C91.15,77.5 94.62,80.57 95.07,84.05 C95.57,87.87 91.3,89.6 86.59,89.6 Z" fill="#EA7554" opacity="0.26"/>
  <path d="M114.88,102.95 L58.28,102.95 C56.74,102.95 55.49,101.7 55.49,100.16 L55.49,91.71 L117.67,91.71 L117.67,100.16 C117.67,101.71 116.42,102.95 114.88,102.95 Z" fill="#BA793E"/>
  <path d="M56.36,90.71 L116.8,90.71 Q117.8,90.71 117.8,91.71 Q117.8,92.71 116.8,92.71 L56.36,92.71 Q55.36,92.71 55.36,91.71 Q55.36,90.71 56.36,90.71 Z" fill="#FFB74D"/>
  <path d="M114.02,92.63 L108.41,90.76 C110.16,82.36 104.57,78.8 101.98,78.42 C102.02,78.11 102.04,77.8 102.04,77.49 C102.04,73.5 100.88,67.44 94.55,66.73 C94.59,66.4 94.62,66.07 94.62,65.73 C94.62,61.37 91.09,57.84 86.73,57.84 C86.68,57.84 86.63,57.85 86.59,57.85 C86.54,57.85 86.49,57.84 86.45,57.84 C82.09,57.84 78.56,61.37 78.56,65.73 C78.56,66.07 78.59,66.4 78.63,66.73 C72.3,67.43 71.14,73.49 71.14,77.49 C71.14,77.81 71.16,78.12 71.2,78.42 C68.61,78.8 63.02,82.36 64.77,90.76 L59.16,92.63 L59.15,100.17 C59.15,101.71 60.17,102.96 61.43,102.96 L72.22,102.96 L70.97,124 L86.58,124 L102.19,124 L100.94,102.95 L111.73,102.95 C112.99,102.95 114.01,101.7 114.01,100.16 L114.02,92.63 Z" fill="#1A237E" opacity="0.38"/>
  <path d="M89.9,112.12 C89.61,110.29 88.27,108.85 86.54,108.85 C84.81,108.85 83.46,110.2 83.18,112.12 C81.64,112.5 80.39,112.5 80.39,114.52 C80.39,116.73 84.14,120.38 86.64,120.38 C89.14,120.38 92.69,116.73 92.69,114.52 C92.69,112.5 91.54,112.5 89.9,112.12 Z" fill="#4E342E"/>
  <path d="M89.2,112.34 C88.97,110.9 87.91,109.76 86.54,109.76 C85.17,109.76 84.11,110.82 83.88,112.34 C82.67,112.64 81.68,112.64 81.68,114.24 C81.68,115.99 84.64,118.87 86.62,118.87 C88.59,118.87 91.4,115.98 91.4,114.24 C91.4,112.65 90.49,112.65 89.2,112.34 Z" fill="#212121"/>
  <path d="M12.76,124 C12.74,123.66 10.95,92.64 28.7,55.11 L30.58,55.45 C14.07,92.8 16.24,123.63 16.26,123.97 L12.76,124 Z" fill="#97A53B"/>
  <path d="M18.93,124 L16.26,124 C16.29,123.72 17.63,97.33 31.91,74.87 L33.62,75.95 C21.45,97.75 18.96,123.73 18.93,124 Z" fill="#97A53B"/>
  <path d="M31.98,102.42 C34.3,100.75 37.81,98.8 40.5,99.77 C42.1,100.35 43.33,101.65 44.43,102.96 C47.37,106.44 49.37,110.88 52.37,114.31 C56.36,118.88 64.01,120.92 64.01,120.92 C64.01,120.92 53.98,122.91 49.57,118.5 C44.93,113.85 44.94,112.71 42.47,108.97 C41.37,107.3 37.75,102.88 35.19,103.14 C32.63,103.4 26.62,121.01 24.19,124 L19.72,124 C19.72,124 20.58,117.15 23.09,112.05 C25.03,108.12 28.41,104.98 31.98,102.42 Z" fill="#668424"/>
  <path d="M12.43,124 L14.99,124 C14.99,124 10.05,85.57 18.42,59.48 C21.76,49.06 29.95,37.12 33.56,32.15 C33.81,31.8 33.35,31.39 33.02,31.67 C-0.71,60.52 9.44,110.96 12.43,124 Z" fill="#97A53B"/>
  <path d="M7.3,58.01 C6.38,71.85 7.55,87.87 7.55,87.87 C7.55,87.87 7.79,71.66 11.42,62.6 C11.42,62.6 12.49,46.46 17.35,33.04 C22.06,20.05 30.46,11.16 29.82,10.93 C28.52,10.45 9.54,24.13 7.3,58.01 Z" fill="#668424"/>
  <path d="M56.07,14.9 C50.37,17.04 45.52,21.07 41.72,25.82 C37.92,30.57 35.1,36.03 32.64,41.59 C30.19,47.14 27.75,53.62 27.26,58.91 C27.11,60.51 28.58,60.52 29.55,59.25 C33.37,54.25 37.21,45.76 49.43,40.65 C53.44,38.97 57.72,36.31 56.18,34.48 C55.74,33.96 54.56,33.38 52.56,33.85 C50.15,34.42 47.37,35.88 46.26,36.5 C45.95,36.67 45.48,36.64 46.26,35.99 C47.71,34.77 51.5,32.27 57.77,30.73 C59.09,30.41 60.7,29.38 59.86,28.4 C58.99,27.39 57.31,27.26 55.17,27.95 C47.12,30.56 42.29,33.89 38.14,39.2 C37.88,39.53 37.36,39.2 37.56,38.83 C39.61,35 42.01,32.19 46.23,29.29 C51.51,25.66 65.25,22.6 66.56,21.82 C68.57,20.62 68.98,19.77 69.03,19 C69.15,17.21 67.19,16.89 65.76,17.16 C57.63,18.65 49.9,22.31 43.72,27.79 C43.55,27.94 43.34,27.85 43.57,27.56 C49.78,19.8 55.53,17.83 59.12,16.22 C59.88,15.88 61.04,15.25 59.91,14.37 C58.99,13.65 56.99,14.55 56.07,14.9 Z" fill="#FFFFFF"/>
  <path d="M29.7,83.17 C28.83,83.69 27.78,82.86 28.09,81.89 C29.49,77.49 31.64,72.09 36.33,64.89 C42.03,56.13 49.19,49.56 53.04,48.63 C56.64,47.76 56.22,49.99 55.21,50.58 C52.12,52.38 48.44,54.65 45.81,57.07 C42.39,60.23 40.34,63.63 39.52,65.13 C39.25,65.63 39.51,65.42 39.71,65.17 C44.73,59.04 53.08,52.95 61.25,50.9 C62.8,50.51 65.21,50.11 66.71,50.65 C67.47,50.92 68.22,51.53 68.24,52.34 C68.26,53.21 67.31,54.22 65.09,55.06 C59.86,57.04 49.7,61.66 46.26,65.1 C46.26,65.1 45.77,65.88 48,64.55 C49.68,63.54 53.52,61.12 57.72,60.91 C61.16,60.74 61.07,64.21 54.85,66.22 C50.94,67.48 47.45,68.83 44.18,70.26 C41.34,71.49 38.02,73.51 36.45,74.95 C35.23,76.08 35.35,76.15 35.89,75.8 C35.89,75.8 40.81,72.94 41.57,74.48 C42,75.36 40.83,76.3 40.01,76.83 C37.03,78.77 32.48,81.51 29.7,83.17 Z" fill="#FFFFFF"/>
</svg>
